X:15900
T:Stable Call,The. GS.062
M:3/4
L:1/8
Q:150
S:George Spencer m/s, Leeds,1831
R:Fanfare
O:England
A:Leeds
H:1831
Z:vmp.Cherri Graebe
K:G major
G2GGGG | B2G2B2 | d2 dddd | d2B2d2 | g2gggg | g2d2B2 | G2 GGGG | G4 "1"
d2 :||:!
g2 gggg | g4 bg | a2 dddd | e6 | a2 aaaa | a4 c'a | b2 gggg | g4 z2 |! G
2 GGGG |
 B2G2B2 | d2 dddd | d2B2d2 | g2 gggg | g2d2B2 | G2 GGGG | G4 :||


